X:1
T:Nicht So Traurig, 77.77.77
T:Nicht So Traurig, 77.77.77
T:Johann Georg Ebeling, 1666
T:Public Domain Courtesy of the Cyber Hymnal™
C:Johann Georg Ebeling, 1666
Z:Public Domain
Z:Courtesy of the Cyber Hymnal™
%%score ( 1 2 ) ( 3 4 )
L:1/8
Q:1/4=110
M:none
K:F
V:1 treble 
V:2 treble 
V:3 bass 
V:4 bass 
V:1
 [CF]3 [CG] [CF]2 C2 | [DF]2 [EG]2 [FA]4 | [CA]2 [Fc]2 [FB]2 [FA]2 | [FG]2 [EG]2 F4 x | %4
 [CF]3 [CG] [CF]2 C2 | [DF]2 [EG]2 [FA]4 | [CA]2 [Fc]2 [FB]2 [FA]2 | [FG]2 [EG]2 F4 x | %8
 [CA]2 [FA]2 [EG]2 [Gc]2 | [G=B]2 [Gd]2 [Ec]4 | [CA]3 [CG] [B,B]2 [CA]2 | [DG]2 G2 [A,F]4 |] %12
V:2
 x6 C2 | x8 | x8 | x4 F4 x | x6 C2 | x8 | x8 | x4 F4 x | x8 | x8 | x8 | x2 (CB,) x4 |] %12
V:3
 [F,A,]3 [E,G,] [F,A,]2 A,2 | [D,A,]2 [C,C]2 [F,C]4 | F,2 [F,A,]2 [D,D]2 [F,C]2 | C3 z B, [F,A,]4 | %4
 [F,A,]3 [E,G,] [F,A,]2 A,2 | [D,A,]2 [C,C]2 [F,C]4 | F,2 [F,A,]2 [D,D]2 [F,C]2 | C3 z B, [F,A,]4 | %8
 [F,A,]2 [F,C]2 [C,C]2 [E,C]2 | [G,D]2 [G,=B,]2 [C,C]4 | F,3 [E,G,] [D,F,]2 F,2 | %11
 [B,,F,]2 [C,E,]2 [F,,F,]4 |] %12
V:4
 x6 (F,E,) | x8 | F,2 x6 | B,,2 C,2 x5 | x6 (F,E,) | x8 | F,2 x6 | C,2 C,2 x5 | x8 | x8 | %10
 F,3 F,2 x3 | x8 |] %12

